resources/haticons/SVG/domain_verification.svg

<!-- Generated by IcoMoon.io -->
<svg version="1.1" xmlns="http://www.w3.org/2000/svg" width="24" height="24" viewBox="0 0 24 24">
<title>domain_verification</title>
<path d="M16.594 10.875l-1.406-1.406-4.266 4.219-2.109-2.109-1.406 1.406 3.516 3.563zM18.984 3.984h-13.969q-0.844 0-1.43 0.586t-0.586 1.43v12q0 0.844 0.586 1.43t1.43 0.586h13.969q0.844 0 1.43-0.586t0.586-1.43v-12q0-0.844-0.586-1.43t-1.43-0.586zM18.984 18h-13.969v-9.984h13.969v9.984z"></path>
</svg>

<svg xmlns="http://www.w3.org/2000/svg" width="24" height="24"><path d="M16.594 10.875l-1.406-1.406-4.266 4.219-2.109-2.109-1.406 1.406 3.516 3.563zm2.39-6.891H5.015q-.844 0-1.43.586T2.999 6v12q0 .844.586 1.43t1.43.586h13.969q.844 0 1.43-.586T21 18V6q0-.844-.586-1.43t-1.43-.586zm0 14.016H5.015V8.016h13.969V18z"/></svg>
